!! 00010] TT[TB
!! Eigene Aufnahme
!!!OTL: Gandier xi li The pass of Gandir
!!!ARE: Neimeng
!! Ethnic Group: Menggu
!! MM, S. 665
!!!SCT: C0553
!!!YEM: Copyright 1995, estate of Helmut Schaffrath.
**kern
*ICvox
*Ivox
*M2/4
*k[]
*C:
{4.e
8a
=1
4g
4a
=2
8c
8d
4e
=3
8e
8c
4A}
=4
{4g
4a
=5
4ee
8cc
8ee
=6
8cc
4a
8cc
=7
2a}
=8
{4ee
4a
=9
8a
8g
4e
=10
4g
4a
=11
4ee
8cc
8ee}
=12
{8cc
4a
8cc
=13
2a
=14
4.a
8dd
=15
8cc
8dd
4e}
=16
{4.a
8dd
=17
4cc
4g
=18
4.a
8cc
=19
4g
4e}
=20
{8d
4c
8g
=21
2e
=22
8a
8g
8e
8cc
=23
2a}
==
!!!AGN: NN
!! Saenger: Chao Lun Batou, der das Buch nur zum Nachschlagen
!!    benutzte und ansonsten auswendig sang. Da er aus dem Osten der
!!    Neimeng kommt, kennt er nicht so viele Lieder des Westens.
!!    Alle Lieder wurden mit erkaelteter, halber Stimme in meinem
!!    Zimmer gesungen. FOTO VORHANDEN (DIAS)  31.3.87
!!    In der Vorlage keine Schlusstriche vorhanden!
!!    OFFENBAR ANDERES STUECK!
!!!ONB: ESAC (Essen Associative Code) Database: CHINA
!!!AMT: simple duple
!!!AIN: vox
!!!EED: Helmut Schaffrath
!!!EEV: 1.0
*-
